X: 1
T: the Leg of a Duck
C: trad.
R: jig
S: Fiddle Hell Online 2021-5-18 Wendy McIsaac workshop handout
Z: 2021 John Chambers <jc:trillian.mit.edu>
M: 6/8
L: 1/8
K: G
d/c/ |\
B2G TA2G | ABA GED | EAA TA2G | EAA ABc |
B2G TA2G | ABA GED | Edc TBAB | {D}G3 G2 :|
|: A/B/ |\
cde gfg | BAB GED | EAA TA2G | EAA TA2B |
cde gfg | BAB GED | Edc TBAB | {D}G3 G2 :|
